!!!SOCIAL_FUNCTION:	songs connected with war and hunting
!!!PDT:	1932
!!!OTL: No_40_War_Bundle_Dance_Song_(a).krn
!!!REG: Wisconsin
!!!LANG: Non-Tone
!!!LING_GROUP: Algonquin
**kern
*staff1
=1-
*clefF4
*k[f#c#g#]
*M2/4
4r
12B\L
12B\
12B\J
=2
4B\
4B\
=3||
*M3/4
8B\L
8B\J
16A\LL
16A\J
8A\J
12B\L
12B\
12A\J
=4||
*M2/4
4A\
4A\
=5||
*M3/4
8F#\L
8E\J
16E\LL
16E\
16E\JJ
16r
12A\L
12A\
12B\J
=6||
*M2/4
4A\
4A\
=7||
*M3/4
8F#\L
8E\J
16E\LL
16E\J
8E\J
12F#\L
12F#\
12F#\J
=8||
*M2/4
4E\
4E\
=9||
*M3/4
8D/L
8C#/J
16BB/LL
16BB/
16BB/JJ
16r
8C#/L
8BB/J
=10||
*M2/4
4AA/
4AA/
=11
8BB/L
8BB/J
16AA/LL
16AA/J
8AA/J
=12
4.r
8B\
=13
8.cn\L
16B\Jk
12B\L
12B\
12B\J
=14||
*M3/8
8B\L
8cn\
16.B\L
32A\JJk
=15||
*M2/4
8A\L
24A\K
12E\J
8E\L
8E\J
=16
8E\
8r
12A\L
12A\
12B\J
=17
4A\
4A\
=18||
*M3/4
8A\L
8A\J
12F#\L
12F#\
12F#\J
12A\L
12A\
12B\J
=19||
*M2/4
4A\
4A\
=20||
*M3/4
8A\L
8F#\J
16E\LL
16E\
16E\JJ
16r
12E\L
12E\
12F#\J
=21||
*M2/4
4E\
4E\
=22||
*M3/4
8D/L
8C#/J
16BB/LL
16BB/J
8BB/J
8C#/L
8BB/J
=23
4AA/
4AA/
12BB/L
12BB/
12BB/J
=24
4AA/
8AA/
8r
12BB/L
12BB/
12BB/J
=25
4AA/
4AA/
12AA/L
12AA/
12AA/J
=26
4AA/
4AA/
4r
==
*-
